src/assets/img/wp.svg

<svg xmlns="http://www.w3.org/2000/svg" width="24" height="24" viewBox="0 0 24 24"><path d="M2.597 7.81l4.911 13.454c-3.434-1.668-5.802-5.19-5.802-9.264 0-1.493.32-2.91.891-4.19zm16.352 3.67c0-1.272-.457-2.153-.849-2.839-.521-.849-1.011-1.566-1.011-2.415 0-.978.747-1.88 1.862-1.819-1.831-1.677-4.271-2.701-6.951-2.701-3.596 0-6.76 1.845-8.601 4.64.625.02 1.489.032 3.406-.118.555-.034.62.782.066.847 0 0-.558.065-1.178.098l3.749 11.15 2.253-6.756-1.604-4.394c-.555-.033-1.08-.098-1.08-.098-.555-.033-.49-.881.065-.848 2.212.17 3.271.171 5.455 0 .555-.033.621.783.066.848 0 0-.559.065-1.178.098l3.72 11.065 1.027-3.431c.444-1.423.783-2.446.783-3.327zm-6.768 1.42l-3.089 8.975c.922.271 1.898.419 2.908.419 1.199 0 2.349-.207 3.418-.583-.086-.139-3.181-8.657-3.237-8.811zm8.852-5.839c.224 1.651-.099 3.208-.713 4.746l-3.145 9.091c3.061-1.784 5.119-5.1 5.119-8.898 0-1.79-.457-3.473-1.261-4.939zm2.967 4.939c0 6.617-5.384 12-12 12s-12-5.383-12-12 5.383-12 12-12 12 5.383 12 12zm-.55 0c0-6.313-5.137-11.45-11.45-11.45s-11.45 5.137-11.45 11.45 5.137 11.45 11.45 11.45 11.45-5.137 11.45-11.45z"/></svg>

<svg width="24" height="24" viewBox="0 0 24 24" fill="none" xmlns="http://www.w3.org/2000/svg">
<path d="M2.597 7.81L7.508 21.264C4.074 19.596 1.706 16.074 1.706 12C1.706 10.507 2.026 9.09 2.597 7.81V7.81ZM18.949 11.48C18.949 10.208 18.492 9.327 18.1 8.641C17.579 7.792 17.089 7.075 17.089 6.226C17.089 5.248 17.836 4.346 18.951 4.407C17.12 2.73 14.68 1.706 12 1.706C8.404 1.706 5.24 3.551 3.399 6.346C4.024 6.366 4.888 6.378 6.805 6.228C7.36 6.194 7.425 7.01 6.871 7.075C6.871 7.075 6.313 7.14 5.693 7.173L9.442 18.323L11.695 11.567L10.091 7.173C9.536 7.14 9.011 7.075 9.011 7.075C8.456 7.042 8.521 6.194 9.076 6.227C11.288 6.397 12.347 6.398 14.531 6.227C15.086 6.194 15.152 7.01 14.597 7.075C14.597 7.075 14.038 7.14 13.419 7.173L17.139 18.238L18.166 14.807C18.61 13.384 18.949 12.361 18.949 11.48V11.48ZM12.181 12.9L9.092 21.875C10.014 22.146 10.99 22.294 12 22.294C13.199 22.294 14.349 22.087 15.418 21.711C15.332 21.572 12.237 13.054 12.181 12.9V12.9ZM21.033 7.061C21.257 8.712 20.934 10.269 20.32 11.807L17.175 20.898C20.236 19.114 22.294 15.798 22.294 12C22.294 10.21 21.837 8.527 21.033 7.061ZM24 12C24 18.617 18.616 24 12 24C5.384 24 0 18.617 0 12C0 5.383 5.383 0 12 0C18.617 0 24 5.383 24 12ZM23.45 12C23.45 5.687 18.313 0.55 12 0.55C5.687 0.55 0.55 5.687 0.55 12C0.55 18.313 5.687 23.45 12 23.45C18.313 23.45 23.45 18.313 23.45 12Z" fill="#E6E6E6"/>
</svg>
